usr/share/icons/biglinux-icons-material/22/actions/zoom-next.svg

<svg version="1.1" viewBox="0 0 22 22" xmlns="http://www.w3.org/2000/svg">
 <defs>
  <style id="current-color-scheme" type="text/css">.ColorScheme-Text {
        color:#363636;
      }</style>
 </defs>
 <path d="m17 3c1.108 0 2 0.892 2 2v1h-1v-1c0-0.554-0.446-1-1-1h-1v-1zm-11 0v1h-1c-0.554 0-1 0.446-1 1v1h-1v-1c0-1.108 0.892-2 2-2zm3.7148 4.3242 1.8027 1.8008 1.875 1.875-1.875 1.875-1.8027 1.8008-0.70703-0.70703 1.8027-1.8008 1.168-1.168-1.168-1.168-1.8027-1.8008 0.70703-0.70703zm9.2852 8.6758v1c0 1.108-0.892 2-2 2h-1v-1h1c0.554 0 1-0.446 1-1v-1zm-15 0v1c0 0.554 0.446 1 1 1h1v1h-1c-1.108 0-2-0.892-2-2v-1z" style="fill:currentColor" class="ColorScheme-Text"/>
</svg>

<svg xmlns="http://www.w3.org/2000/svg" viewBox="0 0 22 22"><path d="M17 3c1.108 0 2 .892 2 2v1h-1V5c0-.554-.446-1-1-1h-1V3zM6 3v1H5c-.554 0-1 .446-1 1v1H3V5c0-1.108.892-2 2-2zm3.715 4.324 1.803 1.801L13.392 11l-1.874 1.875-1.803 1.8-.707-.706 1.802-1.801L11.978 11 10.81 9.832l-1.802-1.8.707-.708zM19 16v1c0 1.108-.892 2-2 2h-1v-1h1c.554 0 1-.446 1-1v-1zM4 16v1c0 .554.446 1 1 1h1v1H5c-1.108 0-2-.892-2-2v-1z" style="fill:currentColor;color:#dedede"/></svg>
